X:105
T:Polska fr \"Alvdalen
R:Polska
O:Sweden
M:3/4
A:\"Alvdalen
K:AMix
Ac d>e fg|a>b ag e>f|\
(3:2g2g2eg fe/d/|f>e e<c A2|\
Ac d>e fg|a>b ag e>f|
(3::4g2g2eg fe/d/|f>e e<c A>B|\
(3:2:4=c2c2Ac B>A|G<B (A2 A)A::
(3A=cd d<e eA|(3A=cd e<d eA|\
(3A=cd d<e eA|(3A=cd e<c A>B|\
(3:2:4=c2c2Ac B>A|G<B A3:|
